Humanity/actions/48/go-jump.svg

<?xml version="1.0" encoding="UTF-8" standalone="no"?>
<!-- Created with Inkscape (http://www.inkscape.org/) -->

<svg
   xmlns:svg="http://www.w3.org/2000/svg"
   xmlns="http://www.w3.org/2000/svg"
   xmlns:xlink="http://www.w3.org/1999/xlink"
   version="1.0"
   width="48"
   height="48"
   id="svg2">
  <defs
     id="defs4">
    <linearGradient
       id="linearGradient3681">
      <stop
         id="stop3683"
         style="stop-color:black;stop-opacity:1"
         offset="0" />
      <stop
         id="stop3685"
         style="stop-color:black;stop-opacity:1"
         offset="0.44974425" />
      <stop
         id="stop3687"
         style="stop-color:white;stop-opacity:1"
         offset="1" />
    </linearGradient>
    <linearGradient
       id="linearGradient5105">
      <stop
         id="stop5107"
         style="stop-color:black;stop-opacity:1"
         offset="0" />
      <stop
         id="stop5109"
         style="stop-color:black;stop-opacity:0"
         offset="1" />
    </linearGradient>
    <linearGradient
       id="linearGradient4009">
      <stop
         id="stop4011"
         style="stop-color:#f8cd70;stop-opacity:1"
         offset="0" />
      <stop
         id="stop4013"
         style="stop-color:#cc9110;stop-opacity:1"
         offset="1" />
    </linearGradient>
    <linearGradient
       id="linearGradient5113">
      <stop
         id="stop5115"
         style="stop-color:white;stop-opacity:1"
         offset="0" />
      <stop
         id="stop5117"
         style="stop-color:white;stop-opacity:0"
         offset="1" />
    </linearGradient>
    <linearGradient
       x1="9.4342346"
       y1="18.498053"
       x2="41.079231"
       y2="18.329662"
       id="linearGradient3621"
       xlink:href="#linearGradient5113"
       gradientUnits="userSpaceOnUse"
       gradientTransform="matrix(0,1.0524125,-0.9783169,0,45.58007,-3.832701)" />
    <linearGradient
       x1="18.567165"
       y1="17.96961"
       x2="42.599838"
       y2="17.891392"
       id="linearGradient3624"
       xlink:href="#linearGradient4009"
       gradientUnits="userSpaceOnUse"
       gradientTransform="matrix(0,1.0524125,-0.9783169,0,45.579974,-3.832604)" />
    <radialGradient
       cx="11.25"
       cy="19.03125"
       r="8.0625"
       fx="11.25"
       fy="19.03125"
       id="radialGradient3627"
       xlink:href="#linearGradient5105"
       gradientUnits="userSpaceOnUse"
       gradientTransform="matrix(2.2945736,0,0,0.6821718,1.6860465,26.517428)" />
    <linearGradient
       x1="2"
       y1="13"
       x2="7"
       y2="14"
       id="linearGradient3693"
       xlink:href="#linearGradient3681"
       gradientUnits="userSpaceOnUse" />
    <mask
       id="mask3689">
      <rect
         width="42"
         height="38"
         x="2"
         y="4"
         id="rect3691"
         style="fill:url(#linearGradient3693);fill-opacity:1;stroke:none" />
    </mask>
    <linearGradient
       x1="2"
       y1="13"
       x2="7"
       y2="14"
       id="linearGradient3699"
       xlink:href="#linearGradient3681"
       gradientUnits="userSpaceOnUse" />
    <mask
       id="mask3695">
      <rect
         width="42"
         height="38"
         x="2"
         y="4"
         id="rect3697"
         style="fill:url(#linearGradient3699);fill-opacity:1;stroke:none" />
    </mask>
  </defs>
  <path
     d="M 45.999999,39.499995 C 45.999999,42.537565 37.717268,45 27.5,45 17.282732,45 8.9999996,42.537565 8.9999998,39.499995 8.9999996,36.462425 17.282732,33.99999 27.5,33.99999 c 10.217268,0 18.499999,2.462435 18.499999,5.500005 z"
     id="path4346"
     style="opacity:0.16292138;fill:url(#radialGradient3627);fill-opacity:1;fill-rule:nonzero;stroke:none;stroke-width:1;marker:none;visibility:visible;display:inline;overflow:visible" />
  <path
     d="m 3.4805,20.938151 c 2.679612,-21.4800045 31.214504,-20.2409 31.014831,1.670323 l 8.030102,0 L 28.255131,40.5195 13.289301,22.608474 c 0,0 8.216064,0 8.216064,0 C 22.078632,7.808281 7.152274,8.350093 3.4805,20.938151 z"
     mask="url(#mask3695)"
     id="path3701"
     style="fill:url(#linearGradient3624);fill-opacity:1;fill-rule:nonzero;stroke:#bf8407;stroke-width:0.96100003;stroke-linecap:round;stroke-linejoin:round;stroke-miterlimit:7;stroke-opacity:1;stroke-dasharray:none;stroke-dashoffset:0;marker:none;visibility:visible;display:block;overflow:visible;enable-background:new" />
  <path
     d="M 7.358737,12.991421 C 14.415346,1.870205 33.444702,4.617092 33.495029,23.608096 l 7.031,0 -12.270802,15.311 -12.866198,-15.311 c 0,0 7.016,0 7.016,0 C 22.978296,8.807903 12.043613,8.80374 7.358737,12.991421 z"
     mask="url(#mask3689)"
     id="path7426"
     style="opacity:0.4;fill:none;stroke:url(#linearGradient3621);stroke-width:0.96100003;stroke-linecap:square;stroke-linejoin:round;stroke-miterlimit:7;stroke-opacity:1;stroke-dasharray:none;stroke-dashoffset:0;marker:none;visibility:visible;display:block;overflow:visible;enable-background:new" />
</svg>

<?xml version="1.0" encoding="UTF-8" standalone="no"?>
<!-- Created with Inkscape (http://www.inkscape.org/) -->
<svg id="svg3718" xmlns:rdf="http://www.w3.org/1999/02/22-rdf-syntax-ns#" xmlns="http://www.w3.org/2000/svg" height="48px" width="48px" version="1.1" xmlns:cc="http://creativecommons.org/ns#" xmlns:xlink="http://www.w3.org/1999/xlink" xmlns:dc="http://purl.org/dc/elements/1.1/">
 <defs id="defs3720">
  <linearGradient id="linearGradient3621" y2="18.33" gradientUnits="userSpaceOnUse" x2="41.079" gradientTransform="matrix(0 1.0524 -.97832 0 45.58 -3.8327)" y1="18.498" x1="9.4342">
   <stop id="stop5115" style="stop-color:#fff" offset="0"/>
   <stop id="stop5117" style="stop-color:#fff;stop-opacity:0" offset="1"/>
  </linearGradient>
  <mask id="mask3689">
   <rect id="rect3691" style="fill:url(#linearGradient3693)" height="38" width="42" y="4" x="2"/>
  </mask>
  <linearGradient id="linearGradient3693" y2="14" gradientUnits="userSpaceOnUse" x2="7" y1="13" x1="2">
   <stop id="stop3683" offset="0"/>
   <stop id="stop3685" offset=".44974"/>
   <stop id="stop3687" style="stop-color:#fff" offset="1"/>
  </linearGradient>
  <linearGradient id="linearGradient3624" y2="17.891" gradientUnits="userSpaceOnUse" x2="42.6" gradientTransform="matrix(0 1.0524 -.97832 0 45.58 -3.8326)" y1="17.891" x1="8.394">
   <stop id="stop3618" style="stop-color:#f0c178" offset="0"/>
   <stop id="stop3270" style="stop-color:#e18941" offset=".5"/>
   <stop id="stop3620" style="stop-color:#ec4f18" offset="1"/>
  </linearGradient>
  <linearGradient id="linearGradient3668" y2="5.0028" gradientUnits="userSpaceOnUse" x2="16.158" y1="41.016" x1="16.158">
   <stop id="stop3624" style="stop-color:#bb2b12" offset="0"/>
   <stop id="stop3626" style="stop-color:#cd7233" offset="1"/>
  </linearGradient>
  <radialGradient id="radialGradient3716" gradientUnits="userSpaceOnUse" cx="11.25" cy="19.031" r="8.0625" gradientTransform="matrix(2.2946 0 0 .68217 1.686 26.517)">
   <stop id="stop5107" offset="0"/>
   <stop id="stop5109" style="stop-opacity:0" offset="1"/>
  </radialGradient>
 </defs>
 <metadata id="metadata3723">
  <rdf:RDF>
   <cc:Work rdf:about="">
    <dc:format>image/svg+xml</dc:format>
    <dc:type rdf:resource="http://purl.org/dc/dcmitype/StillImage"/>
    <dc:title/>
   </cc:Work>
  </rdf:RDF>
 </metadata>
 <g id="layer1">
  <path id="path4346" style="opacity:.16292;fill:url(#radialGradient3716)" d="m46 39.5c0 3.038-8.283 5.5-18.5 5.5s-18.5-2.462-18.5-5.5 8.283-5.5 18.5-5.5 18.5 2.4624 18.5 5.5z"/>
  <path id="path3701" style="stroke-linejoin:round;stroke-width:0.961;stroke:url(#linearGradient3668);stroke-linecap:round;stroke-miterlimit:7;enable-background:new;display:block;fill:url(#linearGradient3624)" d="m3.4805 20.938c2.6796-21.48 31.214-20.241 31.014 1.67h8.0301l-14.269 17.912-14.966-17.912h8.2161c0.574-14.8-14.353-14.258-18.024-1.67z"/>
  <path id="path7426" style="opacity:.4;stroke-linejoin:round;stroke-width:0.961;stroke:url(#linearGradient3621);stroke-linecap:square;stroke-miterlimit:7;enable-background:new;display:block;fill:none" mask="url(#mask3689)" d="m7.3587 12.991c7.0563-11.121 26.086-8.3739 26.136 10.617h7.031l-12.271 15.311-12.866-15.311h7.016c0.573-14.8-10.361-14.804-15.046-10.617z"/>
 </g>
</svg>
